!!! OTL: Berkowitz535
!!! Chapter: 1
!!! Section: IV
!!! Page: 134
!!! Mode: 
!!! Encoder: DJB
**kern
*staff1
*I"Piano
=1-
*clefG2
*k[]
*C:
*M4/4
4c/
4e/
2g#/
=2
4b\
4g/
2e-/
=3
4c/
4e/
4g#/
4b\
=4
2g/
2e-/
=5
4g/
4b\
2dd#\
=6
4ee\
4cc\
2a-/
=7
4ee\
4cc\
2g/
=8
4dd#\
4b\
4g/
4b\
=9
2cc\
2c/
==
*-
